X: 10503
T: Dooinney Seyr V'Ayns Exeter
R: three-two
M: 3/2
K: Bminor
B2|e2(e3/2d/)e4(Bd)|(cB)A2B6B2|g2(g3/2e/)f4(ec)|d2e2f6(ga)|
b2a2(g3f)e2d2|(ef)g2B6(BA)|G2A2B4(g2f2)|f{/g}fe6||

